assets/dedica.svg

<svg xmlns="http://www.w3.org/2000/svg" viewBox="0 0 32 32">
  <defs>
    <linearGradient id="a" x1="0%" y1="0%" x2="100%" y2="100%">
      <stop offset="0%" style="stop-color:#3e5c42;stop-opacity:1"/>
      <stop offset="100%" style="stop-color:#7c9a72;stop-opacity:1"/>
    </linearGradient>
  </defs>
  <circle cx="16" cy="16" r="15" fill="url(#a)"/>
  <path d="M10 9v14h5c4 0 7-3 7-7s-3-7-7-7Zm3 3h2c2 0 4 1.5 4 4s-2 4-4 4h-2Z" fill="#fff"/>
  <circle cx="23" cy="9" r="3.5" fill="#c79762"/>
  <path d="M23 7.5V9l1.2.8" stroke="#fff" stroke-width=".8" fill="none" stroke-linecap="round"/>
</svg>

<svg xmlns="http://www.w3.org/2000/svg" viewBox="0 0 32 32">
  <defs>
    <linearGradient id="grad" x1="0%" y1="0%" x2="100%" y2="100%">
      <stop offset="0%" style="stop-color:#3E5C42;stop-opacity:1" />
      <stop offset="100%" style="stop-color:#7C9A72;stop-opacity:1" />
    </linearGradient>
  </defs>
  
  <!-- Background circle -->
  <circle cx="16" cy="16" r="15" fill="url(#grad)"/>
  
  <!-- Letter D -->
  <path d="M 10 9 L 10 23 L 15 23 C 19 23 22 20 22 16 C 22 12 19 9 15 9 Z M 13 12 L 15 12 C 17 12 19 13.5 19 16 C 19 18.5 17 20 15 20 L 13 20 Z" fill="white"/>
  
  <!-- Clock accent (small circle in top right) -->
  <circle cx="23" cy="9" r="3.5" fill="#C79762"/>
  <path d="M 23 7.5 L 23 9 L 24.2 9.8" stroke="white" stroke-width="0.8" fill="none" stroke-linecap="round"/>
</svg>
